X:75
T:Jockey's Delight
M:6/8
L:1/8
B:Thompson's Compleat Collection of 200 Favourite Country Dances, vol. 3 (London, 1773)
Z:Transcribed and edited by Flynn Titford-Mock, 2007
Z:abc's:AK/Fiddler's Companion
K:Bb
B,DF Bcd | cAF "tr"F3 | gfe dcB | ABc cAF | DFB BFD | EGc c2B | ABG FG=E | F3 F3 :|
|: f3 (f/e/dc) | c3 =B3 | Gfe dc=B | cGE C3 | e3 (e/d/cB) | B3 A3 | Fed cBA | BFD B,de |
FdB Bdf | ecA Ace | dBG GBd | cAF "tr"F2E | DFB BFD | EGc cde | dfB ceA | B3 B,3 :|

